X: 15
T:Over the Water to Charlie, Bledington 2
M:6/8
L:1/8
A:Bledington
P:A(AB)4
K:A
P:A
|:Ace ece|fgf e2A|B2B cBA|F2G A3:|
P:B
|:gaB gfe|fgf e2e|fga gfe|\
M:3/8
L:1/8
f2g|
M:6/8
aba gfe|fgf e2A|B2B cBc|F2G A3:|

